X:1
T:Title
%%score { ( 1 3 ) | 2 }
L:1/8
Q:1/4=100
M:6/8
K:Ab
V:1 treble nm="Grand Piano"
V:3 treble 
V:2 bass 
V:1
 AGF E2 G | [CF]3 [CE]3 | [DB][Ec][Fd] [Ec]2 [DB] | [CA]6 | cBA c2 e | e3 B3 | AAA [EG]2 [=DF] | %7
w: J.~Lincoln~Hall * * * *|||||||
[M:15/16] E3/2-E3/2-E3/2- E3 |[M:3/4] [CE]2 [CF] [CG]2 [CA] | [DA]3 [DG]3 | %10
w: |||
 [GB][GB] [GB] [_G=A]2 [=GB] | c6 | ee e d2 c | f3 [FB]3 | [Gd][Gd] [Gd] [Ac]2 [GB] | A6 |] %16
w: ||||||
V:2
 A,G,F, E,2 G, | [A,,A,]3 [A,,A,]3 | [D,F,][C,=A,][B,,B,] [E,_A,]2 [E,G,] | [A,,A,]6 | %4
 [A,E][A,DE][A,CE] [A,E]2 [A,CE] | [G,B,E]3 [G,B,E]3 | [F,CF][F,CF][F,CF] [B,,B,]2 [B,,A,] | %7
[M:15/16] [E,G,]3/2-[E,G,]3/2-[E,G,]3/2- [E,G,]3 |[M:3/4] [A,,A,]2 [A,,A,] [A,,E,]2 [A,,E,] | %9
 [B,,E,]3 [B,,B,]3 | [E,D][E,D] [E,D] [E,C]2 [E,E] | [A,EA]6 | %12
 [A,CA][A,CA] [A,CA] [=A,CF]2 [A,EF] | [B,DF]3[K:bass] [D,D]3 | [E,B,][E,B,] [E,B,] [E,E]2 [E,D] | %15
 [A,C]6 |] %16
V:3
 x6 | x6 | x6 | x6 | x6 | x6 | x6 |[M:15/16] z3 D3/2- D3 |[M:3/4] x6 | x6 | x6 | x6 | x6 | x6 | %14
 x6 | x6 |] %16

